X: 125
T: Those Are Not My Interest
C: Teton Sioux band 1911-1914
N: Derived from sioux125a.krn
O: South Dakota, U.S.A.
N: Teton Sioux Music by Frances Densmore, 1918
Z: transcribed to **kern format by Craig Sapp
L: 1/8
M: 3/4
Q: 1/4=58
K: C clef=bass
%%linebreak <none>
A, A, [I:setbarnb 1]| 
E2E2D/ E/ D/ E/ ||  
[M:2/4]C C D C | 
C C A, A, | 
A,2E/ D/ E/ D/ ||  
[M:5/8]C2E C A, | 
G, G, G, E, E, ||  
[M:2/4]G, G, A, A, | 
A, G, G, G, | 
G, E,E,2 | 
C, C,C,2 | 
A,,4 | 
A,,4 | 
A,,2A, A, ||  
[M:3/4]E2E2D (E/ D/) | 
C CC4 ||  
[M:2/4]A, A,A,2 | 
(E/ D/) (E/ D/) C C ||  
[M:3/8]E C A, ||  
[M:5/8]G, G, G, E, E, ||  
[M:2/4]G, G, C/ A,3/ | 
A,> G, G, E, | 
E, E,C,2 | 
C, C,C,2 | 
A,,4 | 
A,,2z2 |]  



